X: 253
T: Carnarvon Castle
%R: jig
Z: 2014 John Chambers <jc:trillian.mit.edu>
B: Preston "Twenty four Country Dances for the Year 1794" p.107 #1
F: http://www.vwml.org/browse/browse-collections-dance-tune-books/browse-prestons1794# 2014-8-10
M: 6/8
L: 1/8
K: F
f |\
cAF FAc | cdc AGF |\
AGF FAc | d3 f2 :: f |\
cef Tfef | gec fAA |
fga gfe | d3 f2f/g/ |\
afa geg | fef dcB |\
AGF FAc | d3 f2 :|
% - - - - - - - - - - - - - - - - - - - - - - - - -
%%begintext align
%% Turn your Part.r with the right hand .|
%% Turn back with the left hand :| Lead down
%% the middle up again & cast off :|. Right
%% & left at top :|:
%%endtext
% - - - - - - - - - - - - - - - - - - - - - - - - -

%%sep 1 1 500
%%sep 1 1 500
